X: 2
T: The Black Rogue
R: jig
M: 6/8
L: 1/8
K: Dmix
d/B/ | c2A BAG | cAA AdB | c2A BAG | AFD DdB |c2A BAG | cAA BAG | FGA BAG | AFD D2 :|e | fef gfg | afd cBA | fef gfg | afd efg |agf gfe | efd {ef}e2d | cAA BAG | AFD D2 :|


Tune 1076	Setting 14309

